!!!OTL: Kuangshan laodonghaozi
!!!ARE: Asia, China,ÿHenan Pingdingshan
!! IV, 119
!!!SCT: C1940
!!!YEM: Copyright 1995, estate of Helmut Schaffrath.
**kern
*ICvox
*Ivox
*M2/4
*k[f#]
*G:
{2gg
=1
16dd
16dd
16dd
16b
16a
16b
16a
16g
=2
16f#
16d
16f#
16g
4g}
=3
{4g
4g}
=4
{16dd
8d
16g
8g
16g
16a
=5
8b
16g
16b
8a
8g}
=6
{8.dd
16b
8a
8g}
=7
{16g
16a
16b
16dd
16a
16b
16a
16g
=8
16g
16a
16d
16f#
4g}
=9
{4g
4g}
=10
{16g
16g
16g
16a
8b
8dd
=11
8.g
16b
8a
8g}
=12
{8.dd
16b
8a
8g}
=13
{8dd
16dd
16b
16a
16b
16a
16g
=14
16g
16a
16d
16f#
4g}
=15
{4g
4g}
=16
{8cc
16cc
16dd
8ee
8gg
=17
4cc
8dd
8cc}
=18
{8.gg
16ee
8dd
8cc}
=19
{8cc
16cc
16dd
8ee
8gg
=20
4cc
8dd
8cc}
=21
{8.gg
16ee
8dd
8cc}
=22
{8dd
16dd
16b
16a
16b
16a
16g
=23
16g
16a
16d
16f#
4g}
=24
{4g
4g}
=25
{16g
8g
16a
8b
16dd
16dd
=26
4g
8a
8g}
=27
{8.dd
16b
8a
8g}
=28
{8dd
16dd
16b
16a
16b
16a
16g
=29
16g
16a
16d
16f#
4g}
=30
{4g
4g}
==
!!!AGN: Haozi, Lahao, Pindiao, Guopinxiang
!!!AMT: simple duple
!!!AIN: vox
!!!EED: Helmut Schaffrath
!!!EEV: 1.0
*-
